;FLAVOR:Marlin
;TIME:10566
;Filament used: 15.0146m
;Layer height: 0.2
;MINX:12.094
;MINY:57.737
;MINZ:0.3
;MAXX:187.906
;MAXY:92.263
;MAXZ:44.3
;Generated with Cura_SteamEngine 4.2.1
M140 S50
M105
M190 S50
M104 S220
M105
M109 S220
M82 ;absolute extrusion mode
;(**** start.gcode for Ultimate2 (150S)****)
M104 S150
G28 ; Home extruder
G92 X200 Y150 Z165 ;set start position of axes
G29
G1 Z15 F100
M107 ; Turn off fan
G90 ; Absolute positioning
M82 ; Extruder in absolute mode
M109 S225 ;set extruder temperature
G92 E0 ; Reset extruder position
G1 X140 Y7 Z0.27 F4000
G1 X40 Y7 Z0.27 E23 F1000
G92 E0
M141 S28
G92 E0
G92 E0
G1 F1500 E-6.5
;LAYER_COUNT:221
;LAYER:0
M107
G0 F1200 X23.209 Y59.736 Z0.3
;TYPE:SUPPORT
G1 F1500 E0
G1 F1200 X24.84 Y59.711 E0.10742
G1 X26.499 Y59.719 E0.21668
G1 X26.827 Y59.484 E0.24325
G1 X33.682 Y59.469 E0.69469
G1 X35.776 Y59.475 E0.83259
G1 X37.653 Y59.47 E0.9562
G1 X44.547 Y59.483 E1.4102
G1 X44.873 Y59.717 E1.43663
G1 X47.384 Y59.71 E1.60199
G1 X48.186 Y59.713 E1.65481
G1 X48.362 Y59.989 E1.67637
G1 X48.819 Y61.272 E1.76606
G1 X48.693 Y61.604 E1.78944
G1 X48.694 Y88.347 E3.55061
G1 X28.413 Y88.347 E4.88621
G1 X27.721 Y89.039 E4.95066
G1 X27.721 Y89.046 E4.95112
G1 X27.102 Y89.047 E4.99189
G1 X26.844 Y89.305 E5.01591
G1 X26.843 Y92.222 E5.20801
G1 X18.551 Y92.223 E5.75408
G1 X18.552 Y89.528 E5.93156
G1 X22.297 Y89.528 E6.17819
G1 X22.72 Y89.105 E6.21759
G1 X22.719 Y61.695 E8.02267
G1 X22.665 Y61.331 E8.04691
G1 X23.04 Y59.985 E8.13892
G1 X23.209 Y59.736 E8.15874
G0 X24.003 Y59.923
G1 X24.003 Y92.023 E10.27269
G0 X21.336 Y92.023
G1 X21.336 Y89.728 E10.42383
G0 X22.918 Y88.011
G1 X48.493 Y88.011 E12.10807
G0 X48.006 Y88.147
G1 X48.006 Y59.913 E13.96742
G0 X48.577 Y61.341
G1 X22.869 Y61.341 E15.66042
G0 X22.918 Y64.008
G1 X48.493 Y64.008 E17.34467
G0 X48.493 Y66.675
G1 X22.918 Y66.675 E19.02891
G0 X22.918 Y69.342
G1 X48.493 Y69.342 E20.71315
G0 X48.493 Y72.009
G1 X22.918 Y72.009 E22.3974
G0 X22.918 Y74.676
G1 X48.493 Y74.676 E24.08164
G0 X48.493 Y77.343
G1 X22.918 Y77.343 E25.76588
G0 X22.918 Y80.01
G1 X48.493 Y80.01 E27.45013
G0 X48.493 Y82.677
G1 X22.918 Y82.677 E29.13437
G0 X22.918 Y85.344
G1 X48.493 Y85.344 E30.81861
G0 X45.339 Y88.147
G1 X45.339 Y59.916 E32.67777
G0 X42.672 Y59.68
G1 X42.672 Y88.147 E34.55247
G0 X40.005 Y88.147
G1 X40.005 Y59.675 E36.42749
G0 X37.338 Y59.67
G1 X37.338 Y88.147 E38.30285
G0 X34.671 Y88.147
G1 X34.671 Y59.672 E40.17807
G0 X32.004 Y59.672
G1 X32.004 Y88.147 E42.05329
G0 X29.337 Y88.147
G1 X29.337 Y59.678 E43.92812
G0 X26.67 Y59.842
G1 X26.67 Y89.196 E45.86123
G0 X26.642 Y90.678
G1 X18.751 Y90.678 E46.38089
G1 F1500 E39.88089
G0 F1200 X60.549 Y72.815
G0 X61.165 Y72.749
G0 X138.938 Y72.749
G0 X139.506 Y72.832
G0 X140.047 Y73.063
G0 X140.461 Y73.391
G0 X151.307 Y88.347
G1 F1500 E46.38089
G1 F1200 X151.306 Y61.665 E48.13804
G1 X151.253 Y61.298 E48.16246
G1 X151.617 Y60.001 E48.25117
G1 X151.803 Y59.72 E48.27336
G1 X152.068 Y59.711 E48.29082
G1 X155.072 Y59.717 E48.48865
G1 X155.397 Y59.484 E48.51499
G1 X162.269 Y59.469 E48.96754
G1 X164.344 Y59.475 E49.10419
G1 X166.315 Y59.47 E49.234
G1 X173.141 Y59.485 E49.68352
G1 X176.672 Y59.49 E49.91606
G1 X176.828 Y59.653 E49.93092
G1 X176.852 Y59.693 E49.93399
G1 X177.034 Y60.271 E49.97389
G1 X177.067 Y60.329 E49.97829
G1 X177.16 Y60.719 E50.00469
G1 X177.43 Y61.253 E50.0441
G1 X177.28 Y61.55 E50.06601
G1 X177.281 Y89.104 E51.88058
G1 X177.704 Y89.527 E51.91998
G1 X181.448 Y89.527 E52.16654
G1 X181.448 Y92.222 E52.34402
G1 X173.156 Y92.222 E52.89009
G1 X173.156 Y89.305 E53.08219
G1 X172.898 Y89.047 E53.10622
G1 X172.278 Y89.047 E53.14705
G1 X172.278 Y89.039 E53.14757
G1 X171.586 Y88.347 E53.21202
G1 X151.307 Y88.347 E54.5475
G0 X151.506 Y88.011
G1 X177.081 Y88.011 E56.23174
G0 X178.689 Y89.727
G1 X178.689 Y92.022 E56.38288
G0 X176.022 Y92.022
G1 X176.022 Y59.69 E58.5121
G0 X177.161 Y61.341
G1 X151.461 Y61.341 E60.20458
G0 X152.019 Y59.913
G1 X152.019 Y88.147 E62.06393
G0 X154.686 Y88.147
G1 X154.686 Y59.917 E63.92302
G0 X157.353 Y59.679
G1 X157.353 Y88.147 E65.79778
G0 X160.02 Y88.147
G1 X160.02 Y59.673 E67.67294
G0 X162.687 Y59.671
G1 X162.687 Y88.147 E69.54823
G0 X165.354 Y88.147
G1 X165.354 Y59.672 E71.42345
G0 X168.021 Y59.674
G1 X168.021 Y88.147 E73.29854
G0 X170.688 Y88.147
G1 X170.688 Y59.68 E75.17324
G0 X173.355 Y59.686
G1 X173.355 Y89.221 E77.11827
G0 X173.356 Y90.678
G1 X181.248 Y90.678 E77.63799
G0 X177.081 Y85.344
G1 X151.506 Y85.344 E79.32224
G0 X151.506 Y82.677
G1 X177.081 Y82.677 E81.00648
G0 X177.081 Y80.01
G1 X151.506 Y80.01 E82.69072
G0 X151.506 Y77.343
G1 X177.081 Y77.343 E84.37497
G0 X177.081 Y74.676
G1 X151.506 Y74.676 E86.05921
G0 X151.506 Y72.009
G1 X177.081 Y72.009 E87.74345
G0 X177.081 Y69.342
G1 X151.506 Y69.342 E89.4277
G0 X151.506 Y66.675
G1 X177.081 Y66.675 E91.11194
G0 X177.081 Y64.008
G1 X151.506 Y64.008 E92.79618
G1 F1500 E86.29618
;MESH:Dyson-holder-tools.stl
G0 F1200 X140.188 Y73.174
G0 X139.319 Y74.275
G0 X136.064 Y75.798
G0 X135.994 Y75.868
;TYPE:WALL-INNER
G1 F1500 E92.79618
G1 F1200 X66.037 Y75.867 E97.40321
G1 X64.006 Y75.868 E97.53696
G1 X64.006 Y90.155 E98.47783
G1 X62.067 Y90.155 E98.60552
G1 X61.935 Y91.106 E98.66875
G1 X61.852 Y91.306 E98.68301
G1 X61.712 Y91.486 E98.69803
G1 X61.53 Y91.624 E98.71307
G1 X61.332 Y91.706 E98.72718
G1 X61.057 Y91.742 E98.74545
G1 X29.381 Y91.742 E100.83147
G1 X29.381 Y90.247 E100.92993
G1 X29.381 Y90.007 E100.94573
G1 X29.621 Y90.007 E100.95596
G1 X30.857 Y90.008 E101.03735
G1 X57.875 Y90.007 E102.81663
G1 X58.522 Y89.938 E102.85948
G1 X59.097 Y89.698 E102.90051
G1 X59.574 Y89.328 E102.94026
G1 X59.939 Y88.85 E102.97987
G1 X60.168 Y88.294 E103.01947
G1 X60.239 Y87.7 E103.05887
G1 X60.239 Y75.054 E103.89167
G1 X60.278 Y74.771 E103.91048
G1 X60.363 Y74.566 E103.9251
G1 X60.5 Y74.39 E103.93979
G1 X60.682 Y74.251 E103.95487
G1 X60.874 Y74.172 E103.96854
G1 X61.23 Y74.133 E103.99212
G1 X138.852 Y74.133 E109.10393
G1 X139.118 Y74.17 E109.12161
G1 X139.329 Y74.258 E109.13667
G1 X139.504 Y74.394 E109.15126
G1 X139.643 Y74.576 E109.16634
G1 X139.723 Y74.771 E109.18022
G1 X139.761 Y75.083 E109.20092
G1 X139.761 Y87.748 E110.03498
G1 X139.837 Y88.308 E110.07219
G1 X140.071 Y88.866 E110.11204
G1 X140.441 Y89.343 E110.1518
G1 X140.92 Y89.708 E110.19146
G1 X141.479 Y89.938 E110.23126
G1 X142.123 Y90.007 E110.27392
G1 X170.618 Y90.007 E112.15046
G1 X170.619 Y91.502 E112.24891
G1 X170.619 Y91.742 E112.26472
G1 X170.379 Y91.742 E112.27494
G1 X138.948 Y91.742 E114.34483
G1 X138.665 Y91.703 E114.36364
G1 X138.459 Y91.618 E114.37832
G1 X138.285 Y91.483 E114.39282
G1 X138.146 Y91.3 E114.40796
G1 X138.061 Y91.091 E114.42281
G1 X137.937 Y90.155 E114.48499
G1 X135.994 Y90.155 E114.61295
G1 X135.994 Y75.868 E115.55382
G0 X135.514 Y76.348
;TYPE:WALL-OUTER
G1 X66.037 Y76.347 E120.12923
G1 X64.486 Y76.348 E120.23138
G1 X64.486 Y90.635 E121.17225
G1 X62.485 Y90.635 E121.30402
G1 X62.403 Y91.23 E121.34358
G1 X62.269 Y91.552 E121.36654
G1 X62.053 Y91.829 E121.38968
G1 X61.772 Y92.044 E121.41298
G1 X61.455 Y92.174 E121.43554
G1 X61.09 Y92.222 E121.45979
G1 X28.901 Y92.222 E123.57959
G1 X28.901 Y89.767 E123.74127
G1 X28.901 Y89.527 E123.75707
G1 X29.141 Y89.527 E123.7673
G1 X30.857 Y89.528 E123.8803
G1 X57.85 Y89.527 E125.65793
G1 X58.402 Y89.468 E125.69449
G1 X58.853 Y89.28 E125.72667
G1 X59.23 Y88.987 E125.75811
G1 X59.519 Y88.609 E125.78945
G1 X59.699 Y88.172 E125.82057
G1 X59.759 Y87.671 E125.8538
G1 X59.759 Y75.018 E126.68706
G1 X59.81 Y74.647 E126.71173
G1 X59.945 Y74.321 E126.73496
G1 X60.159 Y74.046 E126.75791
G1 X60.441 Y73.831 E126.78126
G1 X60.753 Y73.702 E126.8035
G1 X61.206 Y73.653 E126.8335
G1 X137.498 Y73.653 E131.85772
G1 X138.882 Y73.653 E131.94886
G1 X139.247 Y73.704 E131.97313
G1 X139.571 Y73.839 E131.99625
G1 X139.848 Y74.053 E132.0193
G1 X140.063 Y74.334 E132.0426
G1 X140.193 Y74.651 E132.06516
G1 X140.241 Y75.054 E132.09189
G1 X140.241 Y87.716 E132.92575
G1 X140.304 Y88.181 E132.95665
G1 X140.489 Y88.622 E132.98814
G1 X140.782 Y88.999 E133.01959
G1 X141.161 Y89.288 E133.05097
G1 X141.598 Y89.468 E133.0821
G1 X142.149 Y89.527 E133.11859
G1 X171.098 Y89.527 E135.02503
G1 X171.099 Y91.982 E135.18671
G1 X171.099 Y92.222 E135.20251
G1 X170.859 Y92.222 E135.21273
G1 X138.912 Y92.222 E137.31661
G1 X138.541 Y92.171 E137.34127
G1 X138.216 Y92.036 E137.36444
G1 X137.94 Y91.822 E137.38744
G1 X137.725 Y91.54 E137.4108
G1 X137.593 Y91.216 E137.43384
G1 X137.516 Y90.635 E137.47243
G1 X135.514 Y90.635 E137.60427
G1 X135.514 Y76.348 E138.54515
G0 X135.314 Y76.348
G0 X135.315 Y75.768
G0 X136.464 Y75.398
;TYPE:SKIN
G1 X66.037 Y75.397 E143.18312
G1 X63.536 Y75.398 E143.34782
G1 X63.536 Y89.685 E144.2887
G1 X61.658 Y89.685 E144.41237
G1 X61.477 Y90.98 E144.49848
G1 X61.44 Y91.071 E144.50495
G1 X61.379 Y91.149 E144.51147
G1 X61.298 Y91.21 E144.51815
G1 X61.206 Y91.248 E144.52471
G1 X61.026 Y91.272 E144.53666
G1 X29.851 Y91.272 E146.5897
G1 X29.851 Y90.477 E146.64205
G1 X30.857 Y90.478 E146.7083
G1 X57.9 Y90.477 E148.48922
G1 X58.64 Y90.398 E148.53823
G1 X59.336 Y90.107 E148.58791
G1 X59.911 Y89.661 E148.63583
G1 X60.35 Y89.087 E148.68342
G1 X60.627 Y88.413 E148.73141
G1 X60.709 Y87.728 E148.77684
G1 X60.709 Y75.09 E149.60912
G1 X60.736 Y74.897 E149.62195
G1 X60.775 Y74.801 E149.62878
G1 X60.831 Y74.73 E149.63473
G1 X60.92 Y74.662 E149.64211
G1 X60.99 Y74.632 E149.64712
G1 X61.263 Y74.603 E149.6652
G1 X138.815 Y74.603 E154.7724
G1 X138.994 Y74.628 E154.7843
G1 X139.089 Y74.668 E154.79109
G1 X139.168 Y74.729 E154.79766
G1 X139.232 Y74.812 E154.80456
G1 X139.265 Y74.893 E154.81032
G1 X139.291 Y75.104 E154.82432
G1 X139.291 Y87.779 E155.65903
G1 X139.379 Y88.433 E155.70249
G1 X139.662 Y89.105 E155.75051
G1 X140.108 Y89.68 E155.79843
G1 X140.685 Y90.119 E155.84618
G1 X141.362 Y90.398 E155.8944
G1 X142.098 Y90.477 E155.94315
G1 X170.148 Y90.477 E157.79038
G1 X170.149 Y91.272 E157.84274
G1 X138.984 Y91.272 E159.89511
G1 X138.79 Y91.245 E159.90801
G1 X138.696 Y91.206 E159.91471
G1 X138.621 Y91.148 E159.92096
G1 X138.559 Y91.066 E159.92773
G1 X138.519 Y90.969 E159.93464
G1 X138.349 Y89.685 E160.01993
G1 X136.464 Y89.685 E160.14407
G1 X136.464 Y75.398 E161.08494
G0 X63.978 Y75.84
G0 X62.576 Y88.725
G1 X61.536 Y88.725 E161.15343
G1 X61.564 Y88.657 E161.15827
G1 X61.669 Y87.785 E161.21611
G1 X61.669 Y75.563 E162.02099
G1 X62.576 Y75.563 E162.08072
G1 X62.576 Y88.725 E162.94751
G0 X63.056 Y89.205
G1 X61.24 Y89.205 E163.0671
G1 X61.019 Y90.788 E163.17236
G1 X60.992 Y90.792 E163.17416
G1 X58.942 Y90.792 E163.30916
G1 X59.58 Y90.525 E163.35471
G1 X60.255 Y90.003 E163.4109
G1 X60.77 Y89.328 E163.46681
G1 X61.095 Y88.535 E163.52325
G1 X61.189 Y87.756 E163.57493
G1 X61.189 Y75.128 E164.40654
G1 X61.194 Y75.094 E164.40881
G1 X61.295 Y75.083 E164.4155
G1 X63.056 Y75.083 E164.53147
G1 X63.056 Y89.205 E165.46147
G0 X63.978 Y75.84
G0 X136.022 Y75.84
G0 X136.944 Y89.205
G1 X136.944 Y75.083 E166.39148
G1 X138.777 Y75.083 E166.51219
G1 X138.806 Y75.087 E166.51412
G1 X138.811 Y75.13 E166.51697
G1 X138.811 Y87.811 E167.35208
G1 X138.911 Y88.561 E167.40191
G1 X139.244 Y89.349 E167.45824
G1 X139.768 Y90.024 E167.51452
G1 X140.445 Y90.539 E167.57054
G1 X141.058 Y90.792 E167.61421
G1 X139.022 Y90.792 E167.74829
G1 X138.979 Y90.786 E167.75115
G1 X138.769 Y89.205 E167.85618
G1 X136.944 Y89.205 E167.97636
G0 X137.424 Y88.725
G1 X137.424 Y75.563 E168.84315
G1 X138.331 Y75.563 E168.90288
G1 X138.331 Y87.843 E169.71158
G1 X138.444 Y88.688 E169.76772
G1 X138.46 Y88.725 E169.77038
G1 X137.424 Y88.725 E169.8386
G0 X137.967 Y88.469
;TYPE:SKIN
G1 X137.678 Y88.181 E169.8498
G0 X137.91 Y88.13
G1 X137.888 Y87.825 E169.86647
G1 X137.876 Y82.722 E170.14466
G1 X137.876 Y76.216 E170.49933
G1 X138.059 Y75.833 E170.52247
G0 X138.075 Y75.849
G0 X136.687 Y75.028
G0 X136.594 Y74.935
G1 X136.376 Y75 E170.53229
G1 X112.335 Y74.999 E171.56952
G1 X63.686 Y74.999 E173.66844
G1 X63.435 Y75.031 E173.67935
G0 X63.56 Y75.156
G0 X62.321 Y75.898
G0 X62.28 Y75.857
G1 X62.139 Y75.998 E173.69021
G1 X62.122 Y79.658 E173.88952
G1 X62.114 Y88.135 E174.35114
G1 X61.864 Y88.451 E174.37308
G0 X61.847 Y88.434
G0 X60.824 Y89.674
G0 X60.864 Y89.714
G1 X60.786 Y89.919 E174.38254
G1 X60.629 Y90.327 E174.4014
G1 X60.208 Y90.472 E174.42061
G0 X60.272 Y90.536
G0 X58.716 Y90.96
G0 X58.567 Y90.811
G1 X58.333 Y90.859 E174.43106
G1 X53.821 Y90.873 E174.62838
G1 X30.345 Y90.873 E175.65507
G1 X30.154 Y90.966 E175.66436
G0 X30.219 Y91.03
G0 X62.041 Y90.125
G0 X63.978 Y75.84
G0 X136.022 Y75.84
G0 X139.074 Y89.576
G0 X139.125 Y89.628
G1 X139.434 Y90.219 E175.69526
G1 X139.314 Y90.382 E175.70464
G0 X139.161 Y90.229
G0 X141.334 Y90.705
G0 X141.497 Y90.868
G1 X141.758 Y90.847 E175.71621
G1 X144.614 Y90.874 E175.84238
G1 X169.504 Y90.874 E176.94195
G1 X169.768 Y90.855 E176.95364
G0 X169.908 Y90.995
G0 X141.378 Y91.032
G1 X141.287 Y90.941 E176.95717
G1 F1500 E170.45717
;MESH:NONMESH
G0 F600 X141.287 Y90.941 Z0.5
G0 F1200 X137.963 Y90.125
G0 X136.022 Y75.84
G0 X61.231 Y74.152
G0 X61.082 Y72.758
G0 X33.681 Y59.429
;TIME_ELAPSED:180.712597
;LAYER:1
M140 S50
M106 S255
;TYPE:SUPPORT
G1 F1500 E176.95717
G1 F3000 X32.004 Y59.432 E177.01853
G1 X32.004 Y88.387 E178.07788
G1 X29.337 Y88.387 E178.17545
G1 X29.337 Y59.438 E179.23459
G1 X26.813 Y59.444 E179.32693
G1 X26.67 Y59.546 E179.33336
G1 X26.67 Y89.086 E180.41411
G1 X26.594 Y89.086 E180.41689
G1 X26.593 Y89.087 E180.41694
G1 X26.329 Y89.087 E180.4266
G1 X26.095 Y89.321 E180.43871
G1 X26.095 Y92.262 E180.54631
G1 X24.003 Y92.262 E180.62285
G1 X24.003 Y59.684 E181.81475
G1 X23.187 Y59.697 E181.84461
G1 X23.004 Y59.966 E181.85651
G1 X22.625 Y61.329 E181.90827
G1 X22.679 Y61.697 E181.92188
G1 X22.68 Y87.173 E182.85395
G1 X22.68 Y89.089 E182.92405
G1 X22.281 Y89.488 E182.94469
G1 X21.336 Y89.488 E182.97927
G1 X21.336 Y92.262 E183.08076
G1 X20.264 Y92.262 E183.11998
G1 X20.067 Y92.263 E183.12718
G1 X18.669 Y92.263 E183.17833
G1 X18.669 Y89.488 E183.27986
G1 X18.533 Y89.488 E183.28483
G1 X18.512 Y89.509 E183.28592
G1 X18.511 Y92.263 E183.38668
G1 X18.669 Y92.263 E183.39246
G1 F1500 E176.89246
G0 F3000 X26.927 Y88.626
G0 X48.006 Y88.387
G1 F1500 E183.39246
G1 F3000 X48.734 Y88.387 E183.41909
G1 X48.733 Y61.611 E184.39872
G1 X48.862 Y61.271 E184.41203
G1 X48.401 Y59.976 E184.46232
G1 X48.207 Y59.673 E184.47548
G1 X48.006 Y59.673 E184.48284
G1 X48.006 Y88.387 E185.53337
G1 X45.339 Y88.387 E185.63095
G1 X45.339 Y59.675 E186.68141
G1 X44.95 Y59.677 E186.69564
G1 X44.884 Y59.677 E186.69806
G1 X44.559 Y59.443 E186.71271
G1 X42.672 Y59.44 E186.78175
G1 X42.672 Y88.387 E187.84081
G1 X40.005 Y88.387 E187.93838
G1 X40.005 Y59.435 E188.99762
G1 X37.653 Y59.43 E189.08367
G1 X37.338 Y59.43 E189.0952
G1 X37.338 Y88.387 E190.15462
G1 X34.671 Y88.387 E190.2522
G1 X34.671 Y59.432 E191.31155
G1 X33.681 Y59.429 E191.34777
G1 F1500 E184.84777
G0 F3000 X139.451 Y72.813
G0 X140.054 Y73.068
G0 X152.019 Y88.387
G1 F1500 E191.34777
G1 F3000 X154.686 Y88.387 E191.44535
G1 X154.686 Y59.677 E192.49573
G1 X155.059 Y59.677 E192.50938
G1 X155.383 Y59.444 E192.52398
G1 X155.782 Y59.443 E192.53858
G1 X157.353 Y59.439 E192.59606
G1 X157.353 Y88.387 E193.65515
G1 X160.02 Y88.387 E193.75273
G1 X160.02 Y59.433 E194.81204
G1 X162.268 Y59.429 E194.89429
G1 X162.614 Y59.43 E194.90695
G1 X162.687 Y59.431 E194.90962
G1 X162.687 Y88.387 E195.96901
G1 X165.354 Y88.387 E196.06658
G1 X165.354 Y59.432 E197.12593
G1 X166.316 Y59.43 E197.16113
G1 X168.021 Y59.434 E197.22351
G1 X168.021 Y88.387 E198.28279
G1 X170.688 Y88.387 E198.38036
G1 X170.688 Y59.44 E199.43942
G1 X173.143 Y59.445 E199.52924
